X:60
T: ICH HAB MIR MEIN WAIZEN AM BERG GESAET
N: F0155
O: Europa, Mitteleuropa, Deutschland
R: Moral - Lied
M: 3/8
L: 1/16
K: C
 | C2E2G2 | c3cA2 | A3GG2 | A3GG2
E2E2E2 | G4D2 | F3EE2 | F3EE2
C2E2G2 | c4e2 | d4B2 | c4z2

